ufans-frontend-package/public/assets/images/feed-story/comments-emoji.svg

<svg width="22" height="23" viewBox="0 0 22 23" fill="none" xmlns="http://www.w3.org/2000/svg">
<g clip-path="url(#clip0_738_1464)">
<path d="M10.9993 22.5967C13.9123 22.5967 16.706 21.4395 18.7659 19.3796C20.8257 17.3198 21.9829 14.5261 21.9829 11.613C21.9829 8.69998 20.8257 5.90626 18.7659 3.84643C16.706 1.7866 13.9123 0.629395 10.9993 0.629395C8.08622 0.629395 5.29249 1.7866 3.23266 3.84643C1.17283 5.90626 0.015625 8.69998 0.015625 11.613C0.015625 14.5261 1.17283 17.3198 3.23266 19.3796C5.29249 21.4395 8.08622 22.5967 10.9993 22.5967ZM9.6263 9.55359C9.6263 10.2414 9.40114 10.0973 9.05653 9.87624C8.82999 9.73071 8.55265 9.55359 8.25335 9.55359C7.95404 9.55359 7.67671 9.73208 7.45017 9.87624C7.10556 10.0973 6.88039 10.2401 6.88039 9.55359C6.88039 8.41679 7.49548 7.49416 8.25335 7.49416C9.01122 7.49416 9.6263 8.41679 9.6263 9.55359ZM16.9455 13.6725C17.066 13.8812 17.1295 14.1179 17.1295 14.3589C17.1295 14.5999 17.066 14.8367 16.9455 15.0454C16.3431 16.0893 15.4764 16.9562 14.4325 17.5588C13.3887 18.1613 12.2045 18.4783 10.9993 18.4778C9.79421 18.478 8.61035 18.1609 7.56676 17.5584C6.52317 16.9559 5.65665 16.0891 5.05437 15.0454C4.93392 14.8368 4.87049 14.6002 4.87042 14.3593C4.87036 14.1184 4.93368 13.8817 5.05401 13.6731C5.17435 13.4644 5.34747 13.291 5.55599 13.1704C5.76451 13.0498 6.00109 12.9862 6.24197 12.986H15.7565C15.9975 12.986 16.2343 13.0494 16.443 13.1699C16.6517 13.2904 16.825 13.4637 16.9455 13.6725ZM14.5483 9.87624C14.3218 9.73071 14.0445 9.55359 13.7452 9.55359C13.4459 9.55359 13.1685 9.73208 12.942 9.87624C12.5974 10.0973 12.3722 10.2401 12.3722 9.55359C12.3722 8.41679 12.9873 7.49416 13.7452 7.49416C14.503 7.49416 15.1181 8.41679 15.1181 9.55359C15.1181 10.2414 14.893 10.0973 14.5483 9.87624Z" fill="#C4C4C4"/>
</g>
<defs>
<clipPath id="clip0_738_1464">
<rect width="21.9673" height="21.9673" fill="white" transform="translate(0.015625 0.627441)"/>
</clipPath>
</defs>
</svg>

<svg xmlns="http://www.w3.org/2000/svg" xmlns:xlink="http://www.w3.org/1999/xlink" width="21.967" height="21.967" viewBox="0 0 21.967 21.967">
  <defs>
    <clipPath id="clip-path">
      <rect id="Rectangle_1" data-name="Rectangle 1" width="21.967" height="21.967" transform="translate(0.016 0.627)" fill="#e44499"/>
    </clipPath>
  </defs>
  <g id="comments-emoji" transform="translate(-0.016 -0.627)" clip-path="url(#clip-path)">
    <path id="Path_1" data-name="Path 1" d="M11,22.6a10.984,10.984,0,1,0-7.767-3.22A10.984,10.984,0,0,0,11,22.6ZM9.626,9.554c0,.688-.225.544-.57.323a1.57,1.57,0,0,0-.8-.323,1.582,1.582,0,0,0-.8.323c-.345.221-.57.364-.57-.323,0-1.137.615-2.059,1.373-2.059S9.626,8.417,9.626,9.554Zm7.319,4.119a1.372,1.372,0,0,1,0,1.373,6.865,6.865,0,0,1-11.891,0,1.373,1.373,0,0,1,1.188-2.059h9.515a1.373,1.373,0,0,1,1.189.686Zm-2.4-3.8a1.57,1.57,0,0,0-.8-.323,1.582,1.582,0,0,0-.8.323c-.345.221-.57.364-.57-.323,0-1.137.615-2.059,1.373-2.059s1.373.923,1.373,2.059c0,.691-.228.55-.573.326Z" fill="#e44499"/>
  </g>
</svg>
